public/images/icon_strategy.svg

<svg fill="none" height="24" viewBox="0 0 24 24" width="24" xmlns="http://www.w3.org/2000/svg"><path d="m6.52115 10.3518.49498.0707zm-.01608.1125-.49497-.0707zm10.97373-.1125.495-.0708zm.0161.1125-.495.0707zm-2.2949 9.5357v.5c.2761 0 .5-.2239.5-.5zm-6.4 0h-.5c0 .2761.22386.5.5.5zm-1.19122-5.3553.3954-.3061zm8.78242-.0001-.3954-.306zm-6.7912 9.0554h4.8v-1h-4.8zm-3.57382-13.419-.01608.1126.98995.1414.01608-.1125zm5.97382-5.181c-3.00307 0-5.54913 2.20818-5.97382 5.181l.98995.1415c.35432-2.48025 2.47845-4.3225 4.98387-4.3225zm5.9738 5.181c-.4247-2.97282-2.9708-5.181-5.9738-5.181v1c2.5054 0 4.6295 1.84225 4.9838 4.3225zm.0161.1126-.0161-.1126-.99.1415.0161.1125zm-1.2033 4.5571c.9601-1.2405 1.446-2.8579 1.2033-4.5571l-.99.1414c.2027 1.4193-.2019 2.7671-1.0041 3.8036zm-2.0866 2.4914v2.5579h1v-2.5579zm.5 2.0579h-6.4v1h6.4zm-5.9.5v-2.5579h-1v2.5579zm-3.2899-9.6064c-.24274 1.6992.24316 3.3166 1.20328 4.5571l.7908-.6121c-.80226-1.0365-1.20688-2.3843-1.00413-3.8036zm3.2899 7.0485c0-1.2133-.64625-2.2642-1.29582-3.1035l-.7908.6121c.62174.8033 1.08662 1.6277 1.08662 2.4914zm6.6958-3.1035c-.6496.8392-1.2958 1.8902-1.2958 3.1035h1c0-.8638.4649-1.6882 1.0866-2.4914zm-4.4958-14.3386v3.2h1v-3.2zm-11.5 12.5h3.2v-1h-3.2zm20.8 0h3.2v-1h-3.2zm-15.64645-6.45355-2.4-2.4-.7071.7071 2.4 2.4zm14.40005.7071 2.4-2.4-.7072-.7071-2.4 2.4z" fill="#9c9c9c"/></svg>

<svg width="24" height="24" viewBox="0 0 24 24" fill="none" xmlns="http://www.w3.org/2000/svg">
<path d="M6.52115 10.3518L7.01613 10.4225L7.01613 10.4225L6.52115 10.3518ZM6.50507 10.4643L6.0101 10.3936L6.0101 10.3936L6.50507 10.4643ZM17.4788 10.3518L17.9738 10.281L17.9738 10.281L17.4788 10.3518ZM17.4949 10.4643L16.9999 10.535L16.9999 10.535L17.4949 10.4643ZM15.2 20V20.5C15.4761 20.5 15.7 20.2761 15.7 20H15.2ZM8.8 20H8.3C8.3 20.2761 8.52386 20.5 8.8 20.5V20ZM7.60878 14.6447L8.00418 14.3386L8.00418 14.3386L7.60878 14.6447ZM16.3912 14.6446L15.9958 14.3386L15.9958 14.3386L16.3912 14.6446ZM9.6 23.7H14.4V22.7H9.6V23.7ZM6.02618 10.281L6.0101 10.3936L7.00005 10.535L7.01613 10.4225L6.02618 10.281ZM12 5.1C8.99693 5.1 6.45087 7.30818 6.02618 10.281L7.01613 10.4225C7.37045 7.94225 9.49458 6.1 12 6.1V5.1ZM17.9738 10.281C17.5491 7.30818 15.003 5.1 12 5.1V6.1C14.5054 6.1 16.6295 7.94225 16.9838 10.4225L17.9738 10.281ZM17.9899 10.3936L17.9738 10.281L16.9838 10.4225L16.9999 10.535L17.9899 10.3936ZM16.7866 14.9507C17.7467 13.7102 18.2326 12.0928 17.9899 10.3936L16.9999 10.535C17.2026 11.9543 16.798 13.3021 15.9958 14.3386L16.7866 14.9507ZM14.7 17.4421V20H15.7V17.4421H14.7ZM15.2 19.5H8.8V20.5H15.2V19.5ZM9.3 20V17.4421H8.3V20H9.3ZM6.0101 10.3936C5.76736 12.0928 6.25326 13.7102 7.21338 14.9507L8.00418 14.3386C7.20192 13.3021 6.7973 11.9543 7.00005 10.535L6.0101 10.3936ZM9.3 17.4421C9.3 16.2288 8.65375 15.1779 8.00418 14.3386L7.21338 14.9507C7.83512 15.754 8.3 16.5784 8.3 17.4421H9.3ZM15.9958 14.3386C15.3462 15.1778 14.7 16.2288 14.7 17.4421H15.7C15.7 16.5783 16.1649 15.7539 16.7866 14.9507L15.9958 14.3386ZM11.5 0V3.2H12.5V0H11.5ZM0 12.5H3.2V11.5H0V12.5ZM20.8 12.5H24V11.5H20.8V12.5ZM5.15355 6.04645L2.75355 3.64645L2.04645 4.35355L4.44645 6.75355L5.15355 6.04645ZM19.5536 6.75355L21.9536 4.35355L21.2464 3.64645L18.8464 6.04645L19.5536 6.75355Z" fill="#9C9C9C"/>
</svg>
